X:229
T:Earl of Lauderdale, The
R:Reel
B:The Athole Collection
M:C|
L:1/8
K:G
G2 Bd cAFD|GBdg d2 cB|ceAc GdGB|AcDF BDB,G,|G2 Bd cAFD|
GBdg d2 cB|ceAc BdGB|AcDF G2 Gd||
gbeg fadf|egce d2cB|ceAc BdGB|AcDF G2Gd|gbeg fadf|dece d2cB|
ceAc BdGB|AcDF GDB,G,||

